img/partners/o-bank.svg

<svg width="355" height="93" viewBox="0 0 355 93" fill="none" xmlns="http://www.w3.org/2000/svg">
<path d="M46.3087 16.7578C29.8333 16.7578 16.5156 30.0755 16.5156 46.5509C16.5156 63.0264 29.8333 76.344 46.3087 76.344C62.7842 76.344 76.1018 63.0264 76.1018 46.5509C76.1018 30.0755 62.7842 16.7578 46.3087 16.7578ZM42.1899 59.1821L39.9931 65.635C31.7554 62.8891 26.2636 55.0632 26.2636 46.2763C26.2636 37.4894 31.7554 29.8009 40.1304 26.9177L42.3272 33.3706C36.8353 35.1554 33.2657 40.3726 33.2657 46.139C32.9911 52.18 36.6981 57.3972 42.1899 59.1821V59.1821ZM52.3497 65.7723L50.2903 59.1821C55.9194 57.3972 59.6264 52.18 59.6264 46.2763C59.6264 40.3726 55.9194 35.2927 50.4276 33.5078L52.6243 26.9177C60.9993 29.6636 66.6284 37.4894 66.6284 46.2763C66.6284 55.3378 60.862 63.1637 52.3497 65.7723V65.7723Z" fill="#9AACDE"/>
<path d="M319.119 51.9069L322.414 55.8885C318.982 59.4582 314.726 60.4192 311.293 60.4192C307.998 60.4192 305.664 59.87 303.605 58.909C299.211 56.7122 297.015 52.3188 297.015 46.9643C297.015 38.8638 302.506 32.8228 310.607 32.8228C319.668 32.8228 324.062 39.5503 323.375 48.3372H302.781C302.918 50.534 304.154 52.5934 305.939 53.6917C307.449 54.6528 309.234 55.0647 311.568 55.0647C314.176 55.0647 316.785 54.2409 319.119 51.9069V51.9069ZM302.918 43.5319H317.472C317.06 40.3741 314.451 37.6282 310.332 37.6282C306.076 37.6282 303.467 40.6487 302.918 43.5319ZM164.662 59.5954H172.076L160.406 46.0032L171.938 33.2347H164.662L155.875 43.3946H153.266V33.2347H147.637V59.4582H153.266V49.0237H155.875L164.662 59.5954V59.5954ZM188.826 38.0401C184.02 38.0401 180.863 41.747 180.863 46.4151C180.863 51.0831 184.02 54.7901 188.826 54.7901C193.631 54.7901 196.652 51.2204 196.652 46.4151C196.789 41.8843 193.768 38.0401 188.826 38.0401V38.0401ZM189.787 32.6855C197.201 32.6855 202.693 38.452 202.693 46.4151C202.693 54.2409 197.338 60.2819 189.787 60.2819C186.217 60.2819 183.334 59.0463 181.275 56.8495V70.5791H175.508V33.372H181.137V36.5298C183.334 33.9212 186.217 32.6855 189.787 32.6855V32.6855ZM264.613 33.372H241.135V38.5892H250.06V59.5954H255.826V38.5892H264.75V33.372H264.613V33.372ZM143.656 33.372H120.041V38.5892H128.965V59.5954H134.731V38.5892H143.656V33.372V33.372ZM113.176 46.5524C113.176 41.6097 109.744 38.0401 104.938 38.0401C100.27 38.0401 96.7006 41.6097 96.7006 46.5524C96.7006 51.495 100.133 55.0647 104.938 55.0647C109.606 55.0647 113.176 51.495 113.176 46.5524ZM90.7969 46.5524C90.7969 38.7265 96.8379 32.8228 104.938 32.8228C112.901 32.8228 119.08 38.7265 119.08 46.5524C119.08 54.3782 113.039 60.4192 104.938 60.4192C96.9752 60.2819 90.7969 54.3782 90.7969 46.5524V46.5524ZM292.484 33.372V59.5954H286.855V42.7081L273.125 59.5954H268.594V33.372H274.224V50.2594L287.953 33.372H292.484V33.372ZM237.154 59.5954H231.525V33.372H237.154V59.5954ZM222.6 50.6712C222.6 48.3372 220.953 46.6897 218.756 46.6897H212.99V54.7901H218.756C220.953 54.7901 222.6 53.0053 222.6 50.6712ZM228.23 50.6712C228.23 55.8885 224.385 59.5954 218.893 59.5954H207.361V33.372H212.99V41.8843H219.443C224.934 41.8843 228.23 45.454 228.23 50.6712Z" fill="#253256"/>
</svg>

<svg width="355" height="93" fill="none" xmlns="http://www.w3.org/2000/svg"><path d="M46.309 16.758c-16.476 0-29.793 13.318-29.793 29.793s13.317 29.793 29.793 29.793c16.475 0 29.793-13.318 29.793-29.793 0-16.476-13.318-29.793-29.793-29.793zm-4.12 42.424l-2.196 6.453c-8.238-2.746-13.73-10.572-13.73-19.359 0-8.787 5.492-16.475 13.867-19.358l2.197 6.453c-5.492 1.784-9.061 7.002-9.061 12.768-.275 6.041 3.432 11.258 8.924 13.043zm10.16 6.59l-2.059-6.59c5.63-1.785 9.336-7.002 9.336-12.906 0-5.903-3.707-10.983-9.198-12.768l2.196-6.59C61 29.664 66.628 37.489 66.628 46.276c0 9.062-5.766 16.888-14.278 19.496z" fill="#9AACDE"/><path d="M319.119 51.907l3.295 3.982c-3.432 3.57-7.688 4.53-11.121 4.53-3.295 0-5.629-.549-7.688-1.51-4.394-2.197-6.59-6.59-6.59-11.945 0-8.1 5.491-14.141 13.592-14.141 9.061 0 13.455 6.727 12.768 15.514h-20.594c.137 2.197 1.373 4.256 3.158 5.355 1.51.96 3.295 1.373 5.629 1.373 2.608 0 5.217-.824 7.551-3.158zm-16.201-8.375h14.554c-.412-3.158-3.021-5.904-7.14-5.904-4.256 0-6.865 3.02-7.414 5.904zM164.662 59.595h7.414l-11.67-13.592 11.532-12.768h-7.276l-8.787 10.16h-2.609v-10.16h-5.629v26.223h5.629V49.024h2.609l8.787 10.571zm24.164-21.555c-4.806 0-7.963 3.707-7.963 8.375s3.157 8.375 7.963 8.375c4.805 0 7.826-3.57 7.826-8.375.137-4.53-2.884-8.375-7.826-8.375zm.961-5.355c7.414 0 12.906 5.767 12.906 13.73 0 7.826-5.355 13.867-12.906 13.867-3.57 0-6.453-1.236-8.512-3.432v13.73h-5.767V33.371h5.629v3.158c2.197-2.609 5.08-3.845 8.65-3.845zm74.826.687h-23.478v5.217h8.925v21.006h5.766V38.59h8.924v-5.217h-.137zm-120.957 0h-23.615v5.217h8.924v21.006h5.766V38.59h8.925v-5.217zm-30.48 13.18c0-4.942-3.432-8.512-8.238-8.512-4.668 0-8.237 3.57-8.237 8.512 0 4.943 3.432 8.513 8.237 8.513 4.668 0 8.238-3.57 8.238-8.513zm-22.38 0c0-7.825 6.042-13.73 14.142-13.73 7.963 0 14.142 5.904 14.142 13.73 0 7.826-6.041 13.867-14.142 13.867-7.963-.137-14.141-6.04-14.141-13.867zm201.688-13.18v26.223h-5.629V42.708l-13.73 16.887h-4.531V33.372h5.63v16.887l13.729-16.887h4.531zm-55.33 26.223h-5.629V33.372h5.629v26.223zM222.6 50.671c0-2.334-1.647-3.981-3.844-3.981h-5.766v8.1h5.766c2.197 0 3.844-1.785 3.844-4.119zm5.63 0c0 5.218-3.845 8.924-9.337 8.924h-11.532V33.372h5.629v8.512h6.453c5.491 0 8.787 3.57 8.787 8.787z" fill="#253256"/></svg>
